src/1-subject/wait.svg

<svg width="1300" height="1000" viewBox="0 0 1300 1000" fill="none" xmlns="http://www.w3.org/2000/svg"><path d="M494.09 881.232 480 875l1-158s-11.065-146-11.5-157c-3.5-88.5-16-197.5-17.5-203.5s-7.5-15.5-19-15.5c-41.503 0-54.165 15.5-69 46-17.528 36.035-29 130-29 130l10 61.5 13.841 32.65A21.896 21.896 0 0 0 379 624.5l2.5 119-16.635 133.554c-.459 3.689 2.418 6.946 6.135 6.946v16h135v-.477a20 20 0 0 0-11.91-18.291Z" fill="#fff"/><path d="M493.791 886.456 473 877.94 475 717l-10-141-12 141-14.5 158 15.571 6.038a15 15 0 0 1 9.546 13.019L464 900h36v-4.29a10 10 0 0 0-6.209-9.254Z" fill="#000"/><path d="M452.211 887.016 431 876.978l16-160.08 13.5-156.596c-3.497-142.189-12.048-190.328-17.812-206.533-2.269-6.38-9.33-8.959-16.098-8.737-13.597.447-37.553 5.812-53.591 35.185C354.321 414.423 341 516.777 341 516.777l9.5 60.034 11.953 28.141a19.51 19.51 0 0 0 17.956 11.881.975.975 0 0 0 .969-1.084L377 576.811l-7-60.034 34.658-98.088a1.452 1.452 0 0 1 2.752.917l-29.973 95.776a7.508 7.508 0 0 0-.319 2.853L386 627.83l2 115.583-15.346 128.104a4.88 4.88 0 0 0 4.846 5.461V900H458l-.069-4.112a10 10 0 0 0-5.72-8.872Z" fill="#000"/><path d="M414.252 340.974c4.039 1.123 11.388 1.007 13.3.844 0 0 8.607-.826 13.456-3.185 5.465-2.658 8.429-5.047 11.84-10.03 2.33-3.404 3.886-9.07 4.553-11.861.263-1.104.414-2.226.505-3.357l2.054-25.597s.195-3.68-.018-6.021c-.508-5.569-1.547-8.773-4.25-13.682-2.775-5.042-5.046-7.672-9.627-11.203-4.884-3.765-8.301-5.297-14.325-6.746-4.678-1.124-7.491-1.345-12.293-.964-5.135.625-7.024 1.117-11.806 3.073-4.776 2.072-9.544 5.422-13.069 9.142-3.525 3.719-5.85 7.96-7.536 12.705-1.687 4.745-2.243 9.232-1.809 14.211.165 1.878.568 4.104 1.028 5.933l7.243 24.455a24.306 24.306 0 0 0 1.316 3.504c1.319 2.789 4.083 8.279 6.538 10.873 3.37 3.561 8.069 6.563 12.9 7.906Z" fill="#fff"/><path d="M415.852 335.061c3.397.989 9.571.907 11.177.77 0 0 7.23-.695 11.298-2.737 4.584-2.3 7.069-4.372 9.921-8.701 1.905-2.892 3.183-7.667 3.755-10.149.247-1.07.385-2.159.466-3.255l1.645-22.116s.154-3.204-.031-5.243c-.442-4.85-1.324-7.643-3.607-11.925-2.346-4.397-4.261-6.693-8.12-9.781-4.114-3.291-6.989-4.634-12.055-5.912-3.933-.991-6.297-1.191-10.331-.872-4.313.53-5.899.953-9.911 2.644-4.008 1.791-8.005 4.695-10.957 7.924s-4.894 6.916-6.298 11.043c-1.404 4.127-1.859 8.033-1.481 12.37.143 1.635.488 3.574.879 5.168l6.1 21.134a23.955 23.955 0 0 0 1.247 3.408c1.145 2.48 3.421 7.098 5.443 9.311 2.841 3.11 6.797 5.736 10.86 6.919Z" fill="#000"/></svg>

<svg width="1300" height="1000" viewBox="0 0 1300 1000" fill="none" xmlns="http://www.w3.org/2000/svg">
<path d="M494.09 881.232L480 875L481 717C481 717 469.935 571 469.5 560C466 471.5 453.5 362.5 452 356.5C450.5 350.5 444.5 341 433 341C391.497 341 378.835 356.5 364 387C346.472 423.035 335 517 335 517L345 578.5L358.841 611.15C362.272 619.243 370.21 624.5 379 624.5L381.5 743.5L364.865 877.054C364.406 880.743 367.283 884 371 884V900H506V899.523C506 891.606 501.33 884.434 494.09 881.232Z" fill="white"/>
<path d="M493.791 886.456L473 877.94L475 717L465 576L453 717L438.5 875L454.071 881.038C459.516 883.149 463.241 888.229 463.617 894.057L464 900H500V895.71C500 891.651 497.547 887.995 493.791 886.456Z" fill="black"/>
<path d="M452.211 887.016L431 876.978L447 716.898L460.5 560.302C457.003 418.113 448.452 369.974 442.688 353.769C440.419 347.389 433.358 344.81 426.59 345.032C412.993 345.479 389.037 350.844 372.999 380.217C354.321 414.423 341 516.777 341 516.777L350.5 576.811L362.453 604.952C365.513 612.155 372.582 616.833 380.409 616.833C380.991 616.833 381.443 616.327 381.378 615.749L377 576.811L370 516.777L404.658 418.689C404.863 418.11 405.411 417.722 406.026 417.722C407.004 417.722 407.702 418.672 407.41 419.606L377.437 515.382C377.148 516.304 377.04 517.272 377.118 518.235L386 627.83L388 743.413L372.654 871.517C372.306 874.422 374.574 876.978 377.5 876.978V900H458L457.931 895.888C457.868 892.083 455.65 888.644 452.211 887.016Z" fill="black"/>
<path d="M414.252 340.974C418.291 342.097 425.64 341.981 427.552 341.818C427.552 341.818 436.159 340.992 441.008 338.633C446.473 335.975 449.437 333.586 452.848 328.603C455.178 325.199 456.734 319.533 457.401 316.742C457.664 315.638 457.815 314.516 457.906 313.385L459.96 287.788C459.96 287.788 460.155 284.108 459.942 281.767C459.434 276.198 458.395 272.994 455.692 268.085C452.917 263.043 450.646 260.413 446.065 256.882C441.181 253.117 437.764 251.585 431.74 250.136C427.062 249.012 424.249 248.791 419.447 249.172C414.312 249.797 412.423 250.289 407.641 252.245C402.865 254.317 398.097 257.667 394.572 261.387C391.047 265.106 388.722 269.347 387.036 274.092C385.349 278.837 384.793 283.324 385.227 288.303C385.392 290.181 385.795 292.407 386.255 294.236L393.498 318.691C393.853 319.89 394.279 321.064 394.814 322.195C396.133 324.984 398.897 330.474 401.352 333.068C404.722 336.629 409.421 339.631 414.252 340.974Z" fill="white"/>
<path d="M415.852 335.061C419.249 336.05 425.423 335.968 427.029 335.831C427.029 335.831 434.259 335.136 438.327 333.094C442.911 330.794 445.396 328.722 448.248 324.393C450.153 321.501 451.431 316.726 452.003 314.244C452.25 313.174 452.388 312.085 452.469 310.989L454.114 288.873C454.114 288.873 454.268 285.669 454.083 283.63C453.641 278.78 452.759 275.987 450.476 271.705C448.13 267.308 446.215 265.012 442.356 261.924C438.242 258.633 435.367 257.29 430.301 256.012C426.368 255.021 424.004 254.821 419.97 255.14C415.657 255.67 414.071 256.093 410.059 257.784C406.051 259.575 402.054 262.479 399.102 265.708C396.15 268.937 394.208 272.624 392.804 276.751C391.4 280.878 390.945 284.784 391.323 289.121C391.466 290.756 391.811 292.695 392.202 294.289L398.302 315.423C398.638 316.588 399.041 317.73 399.549 318.831C400.694 321.311 402.97 325.929 404.992 328.142C407.833 331.252 411.789 333.878 415.852 335.061Z" fill="black"/>
</svg>
